X:1
T:O Where Are the Reapers?
T:George Frederick Root
T:O Where Are the Reapers?
T:Public Domain
T:Public Domain
C:George Frederick Root
Z:Public Domain
%%score ( 1 2 ) ( 3 4 )
L:1/8
M:4/4
K:G
V:1 treble 
V:2 treble 
V:3 bass 
V:4 bass 
V:1
 D2 | [B,G]2 [B,G]>[B,G] [B,G]2 [CA]>[DB] | [B,D]2 [CE]2 [B,D]3 [B,G] | %3
w: 1.~O|are the reap- ers that gar-|ner in The sheaves|
w: 2.~Go|in the by- ways and search|them all; The wheat|
w: 3.~The|are all rip- ening, and far|and wide The world|
w: 4.~So|with your sick- les, ye sons|of men, And ga-|
 [DA]2 [DA]>[DA] [DA]2 [DB]>[CA] | [B,G]2 [CE]2 [B,G]3 [B,G] | [DB]2 [DB]>[DB] [DB]2 [DB]>[DB] | %6
w: of the good from the fields|of sin? With sick-|les of truth must the work|
w: may be there but the weeds|are tall; Then search|in the high- way, and pass|
w: now is wait- ing the har-|vest tide: But reap-|ers are few, and the work|
w: ther to- geth- er the gold-|en grain; Toil on|till the Lord of the har-|
 [Ec]2 [Ec]2 [Ec]3 [Ec] | [Dd]2 [Dd]>[Dd] [Gd]2 [Ec]>[EA] | [DG]2 [CF]2 [B,G]4 || %9
w: be done, And no|one may rest till the “har-|vest home.” *|
w: none by; But ga-|ther them all for the home|on high. Where|
w: is great, And much|will be lost should the harv-|est wait. *|
w: vest come, Then share|ye His joy in the “har-|vest home.” *|
"^Refrain" [Dd]2 [Dd]>[Dd] [Dd][Dd] z D | [DG]2 [FA]2 [GB]2 z [GB] | %11
w: ||
w: are the reap- ers? O who|come And share in|
w: ||
w: ||
 [Ac]2 [Ac]>[Ac] [Ac][GB] [Bd]>[GB] | [FA]2 [FA]2 [FA]2 z [DA] | [DB]2 [DB]2 [DB][DB] z [DB] | %14
w: |||
w: the glo- ry of the “har- vest|home”? O who will|help us to gar- ner|
w: |||
w: |||
 [Ec]2 [Ec]2 [Ec]2 z [Ec] | [Dd]2 [Dd]2 [Gd]2 [Ec]>[EA] | [DG]2 [CF]2 [B,G]2 |] %17
w: |||
w: in The sheaves of|good from the fields of|sin? * *|
w: |||
w: |||
V:2
 D2 | x8 | x8 | x8 | x8 | x8 | x8 | x8 | x8 || x7 D | x8 | x8 | x8 | x8 | x8 | x8 | x6 |] %17
w: where|||||||||||||||||
w: out|||||||||will||||||||
w: fields|||||||||||||||||
w: come|||||||||||||||||
V:3
 D,2 | G,2 G,>G, G,2 G,>G, | G,2 G,2 G,3 G, | [D,F,]2 [D,F,]>[D,F,] [D,F,]2 [D,F,]>[D,F,] | %4
 [G,,G,]2 [C,G,]2 [G,,G,]3 [G,,G,] | G,2 G,>G, G,2 G,>G, | [C,G,]2 [C,G,]2 [C,G,]3 [C,G,] | %7
 [B,,G,]2 [B,,G,]>[B,,G,] [B,,G,]2 [C,A,]>[C,C] | [D,B,]2 [D,A,]2 [G,,G,]4 || %9
 [D,D]2 [D,D]>[D,D] [D,D][D,D] z [D,D] | [B,,D]2 [D,D]2 [G,D]2 z [G,D] | %11
 [D,D]2 [D,D]>[D,D] [G,D][G,D] [G,D]>[G,D] | [D,D]2 [D,D]2 [D,D]2 z [D,F,] | G,2 G,2 G,G, z G, | %14
 [C,G,]2 [C,G,]2 [C,G,]2 z [C,G,] | [B,,G,]2 [B,,G,]2 [B,,G,]2 [C,A,]>[C,C] | %16
 [D,B,]2 [D,A,]2 [G,,G,]2 |] %17
V:4
 D,2 | G,2 G,>G, G,2 G,>G, | G,2 G,2 G,3 G, | x8 | x8 | G,2 G,>G, G,2 G,>G, | x8 | x8 | x8 || x8 | %10
 x8 | x8 | x8 | G,2 G,2 G,G,G, x | x8 | x8 | x6 |] %17

